X:1
T:I'm Marching Inland
M:6/8
L:1/4
K:F
 C/2| C A/2 A G/2| F G/2 F E/2| D E/2 F D/2| C3/2- C D/2| C A/2 A G/2|\
 F- E/2 F F/2| G ^F/2 G A/2| G3/2- G D/2| C A/2 A G/2| F F/2 G A/2|\
 B c/2 B G/2| D3/2- D z/2| A B/2 A G/2| F3/2 c B/2| A F/2 G E/2| F3/2 D3/2|\
 C3/2 A G/2| F3/2 E3/2| D3/2 F3/2| C3/2- C z/2| C3/2 A G/2| F3/2 G A/2|\
 G ^F/2 G A/2| G3/2 z C/2| C A/2 A G/2| F3/2 G A/2| B c/2 B F/2| D3/2 B, A,/2|\
 B, C/2 D D/2| E F/2 G E/2| F3/2 G3/2| A3/2 F C/2| B, C/2 D B,/2| E F/2 G E/2|\
 F3-| F3/2 z||
